assets/chats/chats-fill.svg

<svg id="Raw" xmlns="http://www.w3.org/2000/svg" viewBox="0 0 256.00098 256.00098">
  <rect width="256" height="256" fill="none"/>
  <path d="M232,96.00049a16.01833,16.01833,0,0,0-16-16H184v-32a16.01833,16.01833,0,0,0-16-16H40a16.01833,16.01833,0,0,0-16,16v128a7.99978,7.99978,0,0,0,13.0293,6.22119L72,153.95032l.001,30.05017a16.01833,16.01833,0,0,0,16,16h93.58789l37.38281,30.22119a7.99979,7.99979,0,0,0,13.0293-6.22119ZM189.44727,185.7793a7.99922,7.99922,0,0,0-5.0293-1.77881H88.001l-.001-32h80a16.01833,16.01833,0,0,0,16-16v-40h32l.001,111.24512Z"/>
</svg>

<svg xmlns="http://www.w3.org/2000/svg" viewBox="0 0 256 256"><rect width="256" height="256" fill="none"/><path d="M232,96a16,16,0,0,0-16-16H184V48a16,16,0,0,0-16-16H40A16,16,0,0,0,24,48V176a7.9,7.9,0,0,0,4.6,7.2,7.8,7.8,0,0,0,8.4-1l35-28.3V184a16,16,0,0,0,16,16h93.6L219,230.2a7.8,7.8,0,0,0,8.4,1A7.9,7.9,0,0,0,232,224Zm-42.6,89.8a7.7,7.7,0,0,0-5-1.8H88V152h80a16,16,0,0,0,16-16V96h32V207.2Z"/></svg>
